Origami/24x24/apps/rocket-league.svg

<svg width="24" height="24" version="1" xmlns="http://www.w3.org/2000/svg">
 <path d="m11.25663 2.5c-1.050762 8.151e-4 -2.1035672 0.0599925-3.092992 0.1914062-1.4636144 0.1943957-2.8274009 0.5297181-4.0667462 1.0527344-0.3897032 0.1644591-0.7434469 0.3405533-1.075229 0.5234375-0.9995275 0.5500575-1.5214717 1.1922037-1.773835 1.8261719-0.2146913 0.5524295-0.1599611 0.5584916-0.1736758 0.6464844-0.013715 0.087993-0.01854 0.1376895-0.023417 0.1835937-0.00975 0.091808-0.014498 0.1581786-0.019514 0.2304688-0.010031 0.1445802-0.017574 0.2974717-0.023416 0.4628906l-0.007805 0.2402344 0.0292712 0.2382812c0.073091 0.5837135 0.1635714 1.1574961 0.2673437 1.7246094 0.7896691 3.0607495 2.4037378 6.7321515 4.0491826 8.7499955 0.6380924 0.753913 1.0879157 1.216905 1.9455595 1.876954 0.8203721 0.631365 1.6376317 1.123531 2.6441656 1.599609 0.1088654 0.05149 0.2070444 0.09697 0.2946644 0.136719 0.04381 0.01988 0.08207 0.03794 0.134648 0.06055 0.02629 0.01131 0.05252 0.02114 0.113181 0.04492 0.03033 0.01189 0.06671 0.02611 0.15221 0.05469 0.04275 0.01429 0.09416 0.03295 0.200996 0.06055 0.05342 0.0138 0.226159 0.04879 0.226364 0.04883 2.04e-4 3.6e-5 0.524802 0.04687 0.524931 0.04687 6.32e-4 0 0.537053-0.04578 0.655675-0.07227 0.118621-0.02648 0.186779-0.04725 0.241975-0.06445 0.110392-0.0344 0.163037-0.05523 0.206849-0.07227 0.08762-0.03406 0.127457-0.05239 0.167822-0.07031 0.08073-0.03585 0.141773-0.06553 0.208801-0.09766 0.134057-0.06425 0.283314-0.137369 0.44102-0.216797 0.31541-0.158855 0.566395-0.281361 0.89765-0.474609 0.968741-0.599507 1.867479-1.294851 2.655876-2.052776l2e-3 -2e-3 2e-3 -2e-3c3.029954-3.041619 4.369846-7.029924 4.901948-11.279297 0.131743-0.7722334-0.135718-1.6028335-0.218548-2.0019531-0.327195-0.9876708-1.00817-1.3570428-1.773942-1.8260299-0.331786-0.1828856-0.685526-0.3589794-1.075229-0.5234375-1.239345-0.523018-2.603131-0.8583387-4.066746-1.0527344-1.073745-0.1426127-2.224113-0.2000249-3.362286-0.1894531-0.069603-5.317e-4 -0.140224-0.0019977-0.210752-0.0019531z" style="opacity:.2"/>
 <path d="m11.25663 2c-1.050762 8.151e-4 -2.1035672 0.0599925-3.092992 0.1914062-1.4636144 0.1943957-2.8274009 0.5297181-4.0667462 1.0527344-0.3897032 0.1644591-0.7434469 0.3405533-1.075229 0.5234375-0.9995275 0.5500575-1.5214717 1.1922037-1.773835 1.8261719-0.2146913 0.5524295-0.1599611 0.5584916-0.1736758 0.6464844-0.013715 0.087993-0.01854 0.1376895-0.023417 0.1835937-0.00975 0.091808-0.014498 0.1581786-0.019514 0.2304688-0.010031 0.1445802-0.017574 0.2974717-0.023416 0.4628906l-0.007805 0.2402344 0.0292712 0.2382812c0.073091 0.5837135 0.1635714 1.1574961 0.2673437 1.7246094 0.7896691 3.0607495 2.4037378 6.7321515 4.0491826 8.7499955 0.6380924 0.753913 1.0879157 1.216905 1.9455595 1.876954 0.8203721 0.631365 1.6376317 1.123531 2.6441656 1.599609 0.1088654 0.05149 0.2070444 0.09697 0.2946644 0.136719 0.04381 0.01988 0.08207 0.03794 0.134648 0.06055 0.02629 0.01131 0.05252 0.02114 0.113181 0.04492 0.03033 0.01189 0.06671 0.02611 0.15221 0.05469 0.04275 0.01429 0.09416 0.03295 0.200996 0.06055 0.05342 0.0138 0.226159 0.04879 0.226364 0.04883 2.04e-4 3.6e-5 0.524802 0.04687 0.524931 0.04687 6.32e-4 0 0.537053-0.04578 0.655675-0.07227 0.118621-0.02648 0.186779-0.04725 0.241975-0.06445 0.110392-0.0344 0.163037-0.05523 0.206849-0.07227 0.08762-0.03406 0.127457-0.05239 0.167822-0.07031 0.08073-0.03585 0.141773-0.06553 0.208801-0.09766 0.134057-0.06425 0.283314-0.137369 0.44102-0.216797 0.31541-0.158855 0.566395-0.281361 0.89765-0.474609 0.968741-0.599507 1.867479-1.294851 2.655876-2.052776l2e-3 -2e-3 2e-3 -2e-3c3.029954-3.041619 4.369846-7.029924 4.901948-11.279297 0.131743-0.7722334-0.135718-1.6028335-0.218548-2.0019531-0.327195-0.9876708-1.00817-1.3570428-1.773942-1.8260299-0.331786-0.1828856-0.685526-0.3589794-1.075229-0.5234375-1.239345-0.523018-2.603131-0.8583387-4.066746-1.0527344-1.073745-0.1426127-2.224113-0.2000249-3.362286-0.1894531-0.069603-5.317e-4 -0.140224-0.0019977-0.210752-0.0019531z" style="fill:#cccccc"/>
 <path d="m11.262418 5.500001c-0.934321 7.241e-4 -1.8789017 0.0562829-2.7045012 0.1658416-1.249564 0.1658203-2.3738794 0.4531259-3.2981624 0.842841-0.522543 0.2203257-1.1887611 0.5872401-1.2221364 0.6730683-0.011171 0.0287193-0.028099 0.2724757-0.037618 0.5417 0.070641 0.5636549 0.1551967 1.1130506 0.2552111 1.6482141 0.047083 0.3313906 0.1845034 0.999157 0.3191983 1.517855 0.1897265 0.73063 0.3127675 0.984314 0.6241605 1.286997 0.188842 0.183561 0.332593 0.281211 0.6166745 0.418879 0.4107515 0.199053 0.8928045 0.32982 1.7661194 0.479098 0.5395405 0.09223 1.051465 0.212254 1.477976 0.346577 2.7073402 0.852643 5.0905472 2.770888 5.2087052 4.192459 8e-3 0.09656 0.01934 0.190389 0.02515 0.208537 0.01551 0.04843 0.185683-0.09899 0.65289-0.565643 2.432247-2.439469 3.567571-5.652477 4.053909-9.5329731-0.0095-0.2692243-0.02645-0.5129788-0.03762-0.5417-0.03337-0.085829-0.699592-0.4527426-1.222138-0.6730683-0.92428-0.3897151-2.048595-0.6770207-3.29816-0.842841-0.895842-0.1188798-1.931689-0.174105-2.9426-0.1647235-0.07891-7.724e-4 -0.157924-0.00116-0.237065-0.00111zm-4.5480706 8.478962c-0.165539-0.0013-0.293766 0.0077-0.3651135 0.02824-0.061704 0.01775-0.1505245 0.07005-0.198269 0.116728-0.1318825 0.128951-0.1112755 0.242949 0.108871 0.602424 0.4023955 0.657064 0.8971204 1.343633 1.3732714 1.905722 0.293321 0.346258 1.168472 1.191807 1.487123 1.436828 0.7064197 0.54319 1.1953577 0.837849 2.0987057 1.264747 0.193594 0.09149 0.358734 0.166347 0.366957 0.166347 0.04055 0 1.05495-0.510456 1.310983-0.65969 0.448368-0.26134 0.79245-0.491996 0.880958-0.590561 0.04403-0.04904 0.108914-0.150581 0.144165-0.225666 0.125248-0.266787 0.07245-0.62322-0.145825-0.984125-0.754164-1.246954-3.16127-2.492863-5.6358882-2.917146-0.51699-0.08864-1.061753-0.141069-1.4259384-0.143845z" style="opacity:.2"/>
 <path d="m11.255859 2c-1.050762 8.151e-4 -2.1023717 0.0599926-3.0917965 0.1914062-1.4636144 0.1943958-2.8270609 0.5297181-4.0664063 1.0527344-0.3897032 0.1644591-0.7443897 0.3405533-1.0761718 0.5234375-0.9995275 0.5500575-1.5210742 1.1922037-1.7734375 1.8261719-0.2146913 0.5524295-0.1601134 0.5584916-0.1738281 0.6464844-0.013715 0.087993-0.0185605 0.1376895-0.0234376 0.1835937-0.0097499 0.091808-0.0145152 0.1581786-0.0195312 0.2304688-0.010031 0.1445802-0.0175955 0.2974717-0.0234375 0.4628906l-0.0078125 0.2402344 0.015625 0.1210937c0.0048548-0.1108557 0.0085999-0.2229641 0.015625-0.3242187 0.005016-0.0722902 0.0097813-0.1386608 0.0195312-0.2304688 0.0048771-0.0459042 0.0097226-0.0956007 0.0234376-0.1835937 0.0137147-0.0879928-0.0408632-0.0940549 0.1738281-0.6464844 0.2523633-0.6339682 0.77391-1.2761144 1.7734375-1.8261719 0.3317821-0.1828842 0.6864686-0.3589784 1.0761718-0.5234375 1.2393454-0.5230163 2.6027919-0.8583386 4.0664063-1.0527344 0.9894248-0.1314136 2.0410345-0.1905911 3.0917965-0.1914062 0.070528-4.46e-5 0.141335 0.0014214 0.210938 0.0019531 1.138173-0.0105718 2.289536 0.0468405 3.363281 0.1894531 1.463615 0.1943958 2.827061 0.5297164 4.066406 1.0527344 0.389703 0.1644581 0.742433 0.3405519 1.074219 0.5234375 0.765772 0.4689871 1.448196 0.8385011 1.775391 1.8261719 0.055892 0.2693214 0.187777 0.7402008 0.232422 1.2519531 0.047086-0.6954672-0.158486-1.3956862-0.232422-1.7519531-0.327195-0.9876708-1.009619-1.3571848-1.775391-1.8261719-0.331786-0.1828856-0.684516-0.3589794-1.074219-0.5234375-1.239345-0.523018-2.602791-0.8583386-4.066406-1.0527344-1.073745-0.1426126-2.225108-0.2000249-3.363281-0.1894531-0.069603-5.317e-4 -0.14041-0.0019977-0.210938-0.0019531z" style="fill:#ffffff;opacity:.2"/>
 <path d="m11.262418 5.000001c-0.934321 7.241e-4 -1.8789017 0.0562829-2.7045012 0.1658416-1.249564 0.1658203-2.3738794 0.4531259-3.2981624 0.842841-0.522543 0.2203257-1.1887611 0.5872401-1.2221364 0.6730683-0.011171 0.0287193-0.028099 0.2724757-0.037618 0.5417 0.070641 0.5636549 0.1551967 1.1130506 0.2552111 1.6482141 0.047083 0.3313906 0.1845034 0.999157 0.3191983 1.517855 0.1897265 0.73063 0.3127675 0.984314 0.6241605 1.286997 0.188842 0.183561 0.332593 0.281211 0.6166745 0.418879 0.4107515 0.199053 0.8928045 0.32982 1.7661194 0.479098 0.5395405 0.09223 1.051465 0.212254 1.477976 0.346577 2.7073402 0.852643 5.0905472 2.770888 5.2087052 4.192459 8e-3 0.09656 0.01934 0.190389 0.02515 0.208537 0.01551 0.04843 0.185683-0.09899 0.65289-0.565643 2.432247-2.439469 3.567571-5.652477 4.053909-9.5329731-0.0095-0.2692243-0.02645-0.5129788-0.03762-0.5417-0.03337-0.085829-0.699592-0.4527426-1.222138-0.6730683-0.92428-0.3897151-2.048595-0.6770207-3.29816-0.842841-0.895842-0.1188798-1.931689-0.174105-2.9426-0.1647235-0.07891-7.724e-4 -0.157924-0.00116-0.237065-0.00111zm-4.5480706 8.478962c-0.165539-0.0013-0.293766 0.0077-0.3651135 0.02824-0.061704 0.01775-0.1505245 0.07005-0.198269 0.116728-0.1318825 0.128951-0.1112755 0.242949 0.108871 0.602424 0.4023955 0.657064 0.8971204 1.343633 1.3732714 1.905722 0.293321 0.346258 1.168472 1.191807 1.487123 1.436828 0.7064197 0.54319 1.1953577 0.837849 2.0987057 1.264747 0.193594 0.09149 0.358734 0.166347 0.366957 0.166347 0.04055 0 1.05495-0.510456 1.310983-0.65969 0.448368-0.26134 0.79245-0.491996 0.880958-0.590561 0.04403-0.04904 0.108914-0.150581 0.144165-0.225666 0.125248-0.266787 0.07245-0.62322-0.145825-0.984125-0.754164-1.246954-3.16127-2.492863-5.6358882-2.917146-0.51699-0.08864-1.061753-0.141069-1.4259384-0.143845z" style="fill:#0087db"/>
 <circle cx="5" cy="6.5" r="4" style="opacity:.2"/>
 <circle cx="5" cy="6" r="4" style="fill:#e6e6e6"/>
 <circle cx="5" cy="6.5" r="2" style="opacity:.2"/>
 <circle cx="5" cy="6" r="2" style="fill:#4f4f4f"/>
 <path d="M 5 2 A 4 4 0 0 0 1 6 A 4 4 0 0 0 1.0097656 6.2832031 A 4 4 0 0 1 5 2.5 A 4 4 0 0 1 8.9902344 6.2109375 A 4 4 0 0 0 9 6 A 4 4 0 0 0 5 2 z" style="fill:#ffffff;opacity:.2"/>
</svg>

<svg xmlns="http://www.w3.org/2000/svg" width="24" height="24" version="1">
 <path style="opacity:0.2" d="M 11.25663,2.5 C 10.205868,2.5008151 9.1530628,2.5599925 8.163638,2.6914062 6.7000236,2.8858019 5.3362371,3.2211243 4.0968918,3.7441406 3.7071886,3.9085997 3.3534449,4.0846939 3.0216628,4.2675781 2.0221353,4.8176356 1.5001911,5.4597818 1.2478278,6.09375 1.0331365,6.6461795 1.0878667,6.6522416 1.074152,6.7402344 1.060437,6.8282274 1.055612,6.8779239 1.050735,6.9238281 1.040985,7.0156361 1.036237,7.0820067 1.031221,7.1542969 1.02119,7.2988771 1.013647,7.4517686 1.007805,7.6171875 L 1,7.8574219 1.0292712,8.0957031 c 0.073091,0.5837135 0.1635714,1.1574961 0.2673437,1.7246094 0.7896691,3.0607495 2.4037378,6.7321515 4.0491826,8.7499955 0.6380924,0.753913 1.0879157,1.216905 1.9455595,1.876954 0.8203721,0.631365 1.6376317,1.123531 2.6441656,1.599609 0.1088654,0.05149 0.2070444,0.09697 0.2946644,0.136719 0.04381,0.01988 0.08207,0.03794 0.134648,0.06055 0.02629,0.01131 0.05252,0.02114 0.113181,0.04492 0.03033,0.01189 0.06671,0.02611 0.15221,0.05469 0.04275,0.01429 0.09416,0.03295 0.200996,0.06055 0.05342,0.0138 0.226159,0.04879 0.226364,0.04883 2.04e-4,3.6e-5 0.524802,0.04687 0.524931,0.04687 6.32e-4,0 0.537053,-0.04578 0.655675,-0.07227 0.118621,-0.02648 0.186779,-0.04725 0.241975,-0.06445 0.110392,-0.0344 0.163037,-0.05523 0.206849,-0.07227 0.08762,-0.03406 0.127457,-0.05239 0.167822,-0.07031 0.08073,-0.03585 0.141773,-0.06553 0.208801,-0.09766 0.134057,-0.06425 0.283314,-0.137369 0.44102,-0.216797 0.31541,-0.158855 0.566395,-0.281361 0.89765,-0.474609 0.968741,-0.599507 1.867479,-1.294851 2.655876,-2.052776 l 0.002,-0.002 0.002,-0.002 C 20.092139,16.333239 21.432031,12.344934 21.964133,8.0955611 22.095876,7.3233277 21.828415,6.4927276 21.745585,6.093608 21.41839,5.1059372 20.737415,4.7365652 19.971643,4.2675781 19.639857,4.0846925 19.286117,3.9085987 18.896414,3.7441406 17.657069,3.2211226 16.293283,2.8858019 14.829668,2.6914062 13.755923,2.5487935 12.605555,2.4913813 11.467382,2.5019531 11.397779,2.5014214 11.327158,2.4999554 11.25663,2.5 Z"/>
 <path style="fill:#cccccc" d="M 11.25663,2 C 10.205868,2.0008151 9.1530628,2.0599925 8.163638,2.1914062 6.7000236,2.3858019 5.3362371,2.7211243 4.0968918,3.2441406 3.7071886,3.4085997 3.3534449,3.5846939 3.0216628,3.7675781 2.0221353,4.3176356 1.5001911,4.9597818 1.2478278,5.59375 1.0331365,6.1461795 1.0878667,6.1522416 1.074152,6.2402344 1.060437,6.3282274 1.055612,6.3779239 1.050735,6.4238281 1.040985,6.5156361 1.036237,6.5820067 1.031221,6.6542969 1.02119,6.7988771 1.013647,6.9517686 1.007805,7.1171875 L 1,7.3574219 1.0292712,7.5957031 c 0.073091,0.5837135 0.1635714,1.1574961 0.2673437,1.7246094 0.7896691,3.0607495 2.4037378,6.7321515 4.0491826,8.7499955 0.6380924,0.753913 1.0879157,1.216905 1.9455595,1.876954 0.8203721,0.631365 1.6376317,1.123531 2.6441656,1.599609 0.1088654,0.05149 0.2070444,0.09697 0.2946644,0.136719 0.04381,0.01988 0.08207,0.03794 0.134648,0.06055 0.02629,0.01131 0.05252,0.02114 0.113181,0.04492 0.03033,0.01189 0.06671,0.02611 0.15221,0.05469 0.04275,0.01429 0.09416,0.03295 0.200996,0.06055 0.05342,0.0138 0.226159,0.04879 0.226364,0.04883 2.04e-4,3.6e-5 0.524802,0.04687 0.524931,0.04687 6.32e-4,0 0.537053,-0.04578 0.655675,-0.07227 0.118621,-0.02648 0.186779,-0.04725 0.241975,-0.06445 0.110392,-0.0344 0.163037,-0.05523 0.206849,-0.07227 0.08762,-0.03406 0.127457,-0.05239 0.167822,-0.07031 0.08073,-0.03585 0.141773,-0.06553 0.208801,-0.09766 0.134057,-0.06425 0.283314,-0.137369 0.44102,-0.216797 0.31541,-0.158855 0.566395,-0.281361 0.89765,-0.474609 0.968741,-0.599507 1.867479,-1.294851 2.655876,-2.052776 l 0.002,-0.002 0.002,-0.002 C 20.092139,15.833239 21.432031,11.844934 21.964133,7.5955611 22.095876,6.8233277 21.828415,5.9927276 21.745585,5.593608 21.41839,4.6059372 20.737415,4.2365652 19.971643,3.7675781 19.639857,3.5846925 19.286117,3.4085987 18.896414,3.2441406 17.657069,2.7211226 16.293283,2.3858019 14.829668,2.1914062 13.755923,2.0487935 12.605555,1.9913813 11.467382,2.0019531 11.397779,2.0014214 11.327158,1.9999554 11.25663,2 Z"/>
 <path style="opacity:0.2" d="M 11.262418,5.500001 C 10.328097,5.5007251 9.3835163,5.5562839 8.5579168,5.6658426 7.3083528,5.8316629 6.1840374,6.1189685 5.2597544,6.5086836 4.7372114,6.7290093 4.0709933,7.0959237 4.037618,7.1817519 4.026447,7.2104712 4.009519,7.4542276 4,7.7234519 4.070641,8.2871068 4.1551967,8.8365025 4.2552111,9.371666 c 0.047083,0.3313906 0.1845034,0.999157 0.3191983,1.517855 0.1897265,0.73063 0.3127675,0.984314 0.6241605,1.286997 0.188842,0.183561 0.332593,0.281211 0.6166745,0.418879 0.4107515,0.199053 0.8928045,0.32982 1.7661194,0.479098 0.5395405,0.09223 1.051465,0.212254 1.477976,0.346577 2.7073402,0.852643 5.0905472,2.770888 5.2087052,4.192459 0.008,0.09656 0.01934,0.190389 0.02515,0.208537 0.01551,0.04843 0.185683,-0.09899 0.65289,-0.565643 2.432247,-2.439469 3.567571,-5.652477 4.053909,-9.5329731 -0.0095,-0.2692243 -0.02645,-0.5129788 -0.03762,-0.5417 -0.03337,-0.085829 -0.699592,-0.4527426 -1.222138,-0.6730683 -0.92428,-0.3897151 -2.048595,-0.6770207 -3.29816,-0.842841 -0.895842,-0.1188798 -1.931689,-0.174105 -2.9426,-0.1647235 -0.07891,-7.724e-4 -0.157924,-0.00116 -0.237065,-0.00111 z m -4.5480706,8.478962 c -0.165539,-0.0013 -0.293766,0.0077 -0.3651135,0.02824 -0.061704,0.01775 -0.1505245,0.07005 -0.198269,0.116728 -0.1318825,0.128951 -0.1112755,0.242949 0.108871,0.602424 0.4023955,0.657064 0.8971204,1.343633 1.3732714,1.905722 0.293321,0.346258 1.168472,1.191807 1.487123,1.436828 0.7064197,0.54319 1.1953577,0.837849 2.0987057,1.264747 0.193594,0.09149 0.358734,0.166347 0.366957,0.166347 0.04055,0 1.05495,-0.510456 1.310983,-0.65969 0.448368,-0.26134 0.79245,-0.491996 0.880958,-0.590561 0.04403,-0.04904 0.108914,-0.150581 0.144165,-0.225666 0.125248,-0.266787 0.07245,-0.62322 -0.145825,-0.984125 -0.754164,-1.246954 -3.16127,-2.492863 -5.6358882,-2.917146 -0.51699,-0.08864 -1.061753,-0.141069 -1.4259384,-0.143845 z"/>
 <path style="opacity:0.2;fill:#ffffff" d="M 11.255859 2 C 10.205097 2.0008151 9.1534873 2.0599926 8.1640625 2.1914062 C 6.7004481 2.385802 5.3370016 2.7211243 4.0976562 3.2441406 C 3.707953 3.4085997 3.3532665 3.5846939 3.0214844 3.7675781 C 2.0219569 4.3176356 1.5004102 4.9597818 1.2480469 5.59375 C 1.0333556 6.1461795 1.0879335 6.1522416 1.0742188 6.2402344 C 1.0605038 6.3282274 1.0556583 6.3779239 1.0507812 6.4238281 C 1.0410313 6.5156361 1.036266 6.5820067 1.03125 6.6542969 C 1.021219 6.7988771 1.0136545 6.9517686 1.0078125 7.1171875 L 1 7.3574219 L 1.015625 7.4785156 C 1.0204798 7.3676599 1.0242249 7.2555515 1.03125 7.1542969 C 1.036266 7.0820067 1.0410313 7.0156361 1.0507812 6.9238281 C 1.0556583 6.8779239 1.0605038 6.8282274 1.0742188 6.7402344 C 1.0879335 6.6522416 1.0333556 6.6461795 1.2480469 6.09375 C 1.5004102 5.4597818 2.0219569 4.8176356 3.0214844 4.2675781 C 3.3532665 4.0846939 3.707953 3.9085997 4.0976562 3.7441406 C 5.3370016 3.2211243 6.7004481 2.885802 8.1640625 2.6914062 C 9.1534873 2.5599926 10.205097 2.5008151 11.255859 2.5 C 11.326387 2.4999554 11.397194 2.5014214 11.466797 2.5019531 C 12.60497 2.4913813 13.756333 2.5487936 14.830078 2.6914062 C 16.293693 2.885802 17.657139 3.2211226 18.896484 3.7441406 C 19.286187 3.9085987 19.638917 4.0846925 19.970703 4.2675781 C 20.736475 4.7365652 21.418899 5.1060792 21.746094 6.09375 C 21.801986 6.3630714 21.933871 6.8339508 21.978516 7.3457031 C 22.025602 6.6502359 21.82003 5.9500169 21.746094 5.59375 C 21.418899 4.6060792 20.736475 4.2365652 19.970703 3.7675781 C 19.638917 3.5846925 19.286187 3.4085987 18.896484 3.2441406 C 17.657139 2.7211226 16.293693 2.385802 14.830078 2.1914062 C 13.756333 2.0487936 12.60497 1.9913813 11.466797 2.0019531 C 11.397194 2.0014214 11.326387 1.9999554 11.255859 2 z"/>
 <path style="fill:#0087db" d="M 11.262418,5.000001 C 10.328097,5.0007251 9.3835163,5.0562839 8.5579168,5.1658426 7.3083528,5.3316629 6.1840374,5.6189685 5.2597544,6.0086836 4.7372114,6.2290093 4.0709933,6.5959237 4.037618,6.6817519 4.026447,6.7104712 4.009519,6.9542276 4,7.2234519 4.070641,7.7871068 4.1551967,8.3365025 4.2552111,8.871666 c 0.047083,0.3313906 0.1845034,0.999157 0.3191983,1.517855 0.1897265,0.73063 0.3127675,0.984314 0.6241605,1.286997 0.188842,0.183561 0.332593,0.281211 0.6166745,0.418879 0.4107515,0.199053 0.8928045,0.32982 1.7661194,0.479098 0.5395405,0.09223 1.051465,0.212254 1.477976,0.346577 2.7073402,0.852643 5.0905472,2.770888 5.2087052,4.192459 0.008,0.09656 0.01934,0.190389 0.02515,0.208537 0.01551,0.04843 0.185683,-0.09899 0.65289,-0.565643 2.432247,-2.439469 3.567571,-5.652477 4.053909,-9.5329731 -0.0095,-0.2692243 -0.02645,-0.5129788 -0.03762,-0.5417 -0.03337,-0.085829 -0.699592,-0.4527426 -1.222138,-0.6730683 -0.92428,-0.3897151 -2.048595,-0.6770207 -3.29816,-0.842841 -0.895842,-0.1188798 -1.931689,-0.174105 -2.9426,-0.1647235 -0.07891,-7.724e-4 -0.157924,-0.00116 -0.237065,-0.00111 z m -4.5480706,8.478962 c -0.165539,-0.0013 -0.293766,0.0077 -0.3651135,0.02824 -0.061704,0.01775 -0.1505245,0.07005 -0.198269,0.116728 -0.1318825,0.128951 -0.1112755,0.242949 0.108871,0.602424 0.4023955,0.657064 0.8971204,1.343633 1.3732714,1.905722 0.293321,0.346258 1.168472,1.191807 1.487123,1.436828 0.7064197,0.54319 1.1953577,0.837849 2.0987057,1.264747 0.193594,0.09149 0.358734,0.166347 0.366957,0.166347 0.04055,0 1.05495,-0.510456 1.310983,-0.65969 0.448368,-0.26134 0.79245,-0.491996 0.880958,-0.590561 0.04403,-0.04904 0.108914,-0.150581 0.144165,-0.225666 0.125248,-0.266787 0.07245,-0.62322 -0.145825,-0.984125 -0.754164,-1.246954 -3.16127,-2.492863 -5.6358882,-2.917146 -0.51699,-0.08864 -1.061753,-0.141069 -1.4259384,-0.143845 z"/>
 <circle style="opacity:0.2" cx="5" cy="6.5" r="4"/>
 <circle style="fill:#e6e6e6" cx="5" cy="6" r="4"/>
 <circle style="opacity:0.2" cx="5" cy="6.5" r="2"/>
 <circle style="fill:#4f4f4f" cx="5" cy="6" r="2"/>
 <path style="opacity:0.2;fill:#ffffff" d="M 5 2 A 4 4 0 0 0 1 6 A 4 4 0 0 0 1.0097656 6.2832031 A 4 4 0 0 1 5 2.5 A 4 4 0 0 1 8.9902344 6.2109375 A 4 4 0 0 0 9 6 A 4 4 0 0 0 5 2 z"/>
</svg>
